X:114
T: Man gan niu(3)
N: C1608
O: China,Anhui, Huainan
S: III, 580]
R: Shange. Nann qing]
M: 2/4
L: 1/16
K: A
c2A2B4 | A2c2B4 | c2B2A4 | A8 |
c2A2B2c2 | A2c2B4 | c2A2B2B2 | A2B2A2F2 | E8 |
F2A2E2F2 | E4C4 | B2^A2B4 |
F2B2F2B2 | E2F2B2A2 | F2A2E2F2 | E8 |
c2c2B2cB | A2c2B4 | B2B2A4 | A8 |
c2B2B2B2 | A2B2B2c2 | B4B2G2 | F2G2F4 |
F2F4F2 | E6F2 | F4E2F2 | E8

@@@ Tune index: 6669
